apps/scalable/artikulate.svg

<svg xmlns="http://www.w3.org/2000/svg" style="isolation:isolate" width="256" height="256"><defs><filter id="a" width="270.648" height="254.338" x="-7.32" y="2.95" filterUnits="userSpaceOnUse"><feGaussianBlur xmlns="http://www.w3.org/2000/svg" in="SourceGraphic" stdDeviation="4.294"/><feOffset xmlns="http://www.w3.org/2000/svg" dy="4" result="pf_100_offsetBlur"/><feFlood xmlns="http://www.w3.org/2000/svg" flood-opacity=".4"/><feComposite xmlns="http://www.w3.org/2000/svg" in2="pf_100_offsetBlur" operator="in" result="pf_100_dropShadow"/><feBlend xmlns="http://www.w3.org/2000/svg" in="SourceGraphic" in2="pf_100_dropShadow"/></filter></defs><g filter="url(#a)"><linearGradient id="b" x1="-.033" x2="1.033" y1="-.071" y2=".995" gradientTransform="matrix(244.648 0 0 228.338 5.676 11.947)" gradientUnits="userSpaceOnUse"><stop offset="0%" stop-color="#5884f4"/><stop offset="100%" stop-color="#80a3fa"/></linearGradient><path fill="url(#b)" d="M165.685 11.947c74.055 0 84.639 10.557 84.639 84.544v59.251c0 73.986-10.584 84.543-84.639 84.543h-75.37c-74.055 0-84.639-10.557-84.639-84.543V96.491c0-73.987 10.584-84.544 84.639-84.544h75.37z"/></g><path fill="none" d="M166.444 11.95c74.406 0 85.04 10.557 85.04 84.544v59.251c0 73.986-10.634 84.543-85.04 84.543H90.719c-74.405 0-85.039-10.557-85.039-84.543V96.494c0-73.987 10.634-84.544 85.039-84.544h75.725z"/><path fill="#F7F7F7" fill-opacity=".5" d="M64.121 239.56c.55.036 1.021.098 1.581.131.435.025 1.027.011 1.468.035l-.039-7.592 26.629-24.465v-8.156l12.29-12.233v-6.115l6.144-6.117v-16.309l-8.193-8.156H87.614l-8.193-8.154H58.938l-8.195 8.154v20.389l16.443 14.34-.055 18.279-6.144 6.117v26.502l3.134 3.35zM99.904 81.267l-6.144 6.117h6.144l2.049 2.039h2.048l2.049-2.039-6.146-6.117zM177.742 109.809h-24.58l-14.338 14.271v20.388l10.241 10.194h14.339l6.145 6.116v6.116l4.097 4.077v24.465l15.556 16.365 25.688-25.567-.277-23.418 20.484-20.387h-8.194l-20.483-20.387v-8.155h-24.581l-4.097-4.078z"/><path fill="#F7F7F7" fill-opacity=".5" d="M251.484 117.964V96.493c0-9.248-.167-17.505-.603-24.875a197.93 197.93 0 0 0-.869-10.4c-.366-3.254-.812-6.298-1.352-9.147-.54-2.848-1.174-5.501-1.914-7.97-.739-2.469-1.585-4.756-2.551-6.871-.614-1.347-1.365-2.511-2.08-3.723l-2.922 2.908h-12.29l-12.29 12.233-8.193-8.155h-24.58l-12.29 12.233v10.193h12.29v-6.117h8.193v8.156l-4.098 4.076-16.385.276-6.146 5.841h-8.193v8.155l-6.146 6.117v12.23h12.29l8.195-8.154h8.193v4.078l8.192 8.155h4.098v-4.079l-8.193-8.154h8.193l8.192 8.154h10.242l-6.144-6.115 6.144-6.115h6.146l6.144 6.115h-6.144l-6.146 6.115 6.034 6.006.112 6.227h-8.193l24.581 24.465h4.095l4.097-4.076 8.193-8.157-8.193-8.154h12.291z"/><path fill="#F7F7F7" fill-opacity=".5" d="M157.259 71.073v-6.116l6.145-6.116v12.232h-6.145zM220.758 191.359v-12.784l8.194-7.604v20.388h-8.194zM136.775 11.95H90.718c-.789 0-1.348.049-2.123.051l-7.125 8.104 12.29 12.232V45.12l14.339 15.76h8.193v-8.154l12.29-12.233v-8.156l8.193-8.154V11.95zM126.533 56.802h6.146l6.145 6.116h-12.291v-6.116zM71.228 124.08h-6.145l-6.146 6.117h12.291v-6.117z"/><path fill="#F7F7F7" fill-opacity=".5" d="M16.585 30.96c-.107.152-.245.268-.35.422a39.514 39.514 0 0 0-3.267 5.848c-.965 2.115-1.811 4.402-2.551 6.871-.74 2.469-1.373 5.122-1.913 7.97-.54 2.849-.986 5.893-1.352 9.147a197.89 197.89 0 0 0-.87 10.4c-.436 7.37-.602 15.627-.602 24.875v21.471l8.193 8.154h12.29l20.485 20.389v-24.465l12.29-12.232h8.193l12.29-12.233h12.29l-6.144-6.117 12.29-14.269-12.29-12.233H67.131v16.309h-8.193l-8.195-8.155v-8.154l12.291-12.232h10.243v-8.157l-12.29-12.232H40.502v12.232H30.26L16.585 30.96zM67.131 12.515c-.429.023-1.005.008-1.429.033-3.705.217-7.189.5-10.461.863-3.272.364-6.334.808-9.199 1.344a80.758 80.758 0 0 0-7.159 1.699l7.765 7.729h20.483V12.515z"/><g opacity=".4"><linearGradient id="c" x1=".517" x2=".517" y2="1"><stop offset="0%" stop-color="#fff"/><stop offset="12.5%" stop-opacity=".098" stop-color="#fff"/><stop offset="92.5%" stop-opacity=".098"/><stop offset="100%" stop-opacity=".498"/></linearGradient><path fill="none" stroke="url(#c)" stroke-linecap="round" stroke-linejoin="round" stroke-width="4.077" d="M165.685 11.947c74.055 0 84.639 10.557 84.639 84.544v59.251c0 73.986-10.584 84.543-84.639 84.543h-75.37c-74.055 0-84.639-10.557-84.639-84.543V96.491c0-73.987 10.584-84.544 84.639-84.544h75.37z" vector-effect="non-scaling-stroke"/></g><g filter="url(#bdswC98HVhlrZHloCHoHLoj8pXCZWQbm)"><linearGradient id="d" x1=".631" x2=".636" y1=".775" y2=".141" gradientTransform="matrix(163.099 0 0 89.541 45.892 100.995)" gradientUnits="userSpaceOnUse"><stop offset="2.609%" stop-opacity=".996" stop-color="#d1e3ff"/><stop offset="98.261%" stop-color="#ecf3fd"/></linearGradient><path fill="url(#d)" d="M45.892 100.995v53.411c0 7.162 1.352 12.315 3.99 15.456 2.513 3.015 7.41 4.561 14.698 4.561h17.307l22.824 16.113 22.826-16.113h62.767c7.288 0 12.184-1.546 14.697-4.561 2.639-3.141 3.99-8.294 3.99-15.456v-53.411H45.892z"/><linearGradient id="e" x1=".361" x2=".361" y1=".01" y2=".967" gradientTransform="matrix(163.099 0 0 122.164 45.892 68.371)" gradientUnits="userSpaceOnUse"><stop offset=".435%" stop-color="#fff"/><stop offset="97.826%" stop-color="#f6f9fd"/><stop offset="100%" stop-color="#d8e4f7"/></linearGradient><path fill="url(#e)" d="M64.579 68.375c-7.286-.091-12.183 1.628-14.696 4.644-2.638 3.141-3.991 8.294-3.991 15.456v63.418l35.995 22.53 22.825 16.112 22.825-16.112 81.454-61.85V88.475c0-7.162-1.352-12.315-3.99-15.456-2.513-3.016-7.409-4.644-14.697-4.644H64.579z"/><g opacity=".1"><linearGradient id="f" x1=".612" x2=".714" y1=".365" y2=".498" gradientTransform="matrix(81.454 0 0 61.85 127.537 112.573)" gradientUnits="userSpaceOnUse"><stop offset="0%" stop-opacity=".996" stop-color="#4082e6"/><stop offset="100%" stop-opacity=".275" stop-color="#eab261"/></linearGradient><path fill="url(#f)" d="M208.991 112.573l-81.454 61.85h62.767c7.288 0 12.184-1.545 14.697-4.561 2.638-3.141 3.99-8.294 3.99-15.456v-41.833z"/></g><g opacity=".1"><linearGradient id="g" x1=".368" x2=".178" y1=".105" y2=".353" gradientTransform="matrix(35.994 0 0 22.704 45.892 151.893)" gradientUnits="userSpaceOnUse"><stop offset="0%" stop-opacity=".996" stop-color="#4082e6"/><stop offset="100%" stop-opacity=".275" stop-color="#eab261"/></linearGradient><path fill="url(#g)" d="M45.892 151.893v2.513c0 7.162 1.353 12.315 3.991 15.456 2.513 3.016 7.459 5.414 14.696 4.561h17.308l-35.995-22.53z"/></g><path fill="#FFF" d="M64.58 68.375c-7.287-.091-12.185 1.629-14.698 4.645-2.638 3.141-3.99 8.294-3.99 15.455v2.039c0-7.162 1.352-12.314 3.99-15.456 2.513-3.015 7.411-4.736 14.698-4.644H190.304c7.288 0 12.185 1.629 14.697 4.644 2.639 3.142 3.99 8.294 3.99 15.456v-2.039c0-7.161-1.351-12.314-3.99-15.455-2.512-3.016-7.409-4.645-14.697-4.645H64.58z"/></g><defs><filter id="bdswC98HVhlrZHloCHoHLoj8pXCZWQbm" width="223.099" height="182.164" x="15.89" y="42.37" filterUnits="userSpaceOnUse"><feGaussianBlur xmlns="http://www.w3.org/2000/svg" in="SourceGraphic" stdDeviation="4.294"/><feOffset xmlns="http://www.w3.org/2000/svg" dy="4" result="pf_100_offsetBlur"/><feFlood xmlns="http://www.w3.org/2000/svg" flood-opacity=".4"/><feComposite xmlns="http://www.w3.org/2000/svg" in2="pf_100_offsetBlur" operator="in" result="pf_100_dropShadow"/><feBlend xmlns="http://www.w3.org/2000/svg" in="SourceGraphic" in2="pf_100_dropShadow"/></filter></defs></svg>

<svg xmlns="http://www.w3.org/2000/svg" style="isolation:isolate" width="256" height="256" viewBox="0 0 256 256">
 <defs>
  <filter id="pWW74XEbEUxzxCLZ1jPpZiwcCBZrqENR" width="270.648" height="254.338" x="-7.32" y="2.95" filterUnits="userSpaceOnUse">
   <feGaussianBlur xmlns="http://www.w3.org/2000/svg" in="SourceGraphic" stdDeviation="4.294"/>
   <feOffset xmlns="http://www.w3.org/2000/svg" dx="0" dy="4" result="pf_100_offsetBlur"/>
   <feFlood xmlns="http://www.w3.org/2000/svg" flood-opacity=".4"/>
   <feComposite xmlns="http://www.w3.org/2000/svg" in2="pf_100_offsetBlur" operator="in" result="pf_100_dropShadow"/>
   <feBlend xmlns="http://www.w3.org/2000/svg" in="SourceGraphic" in2="pf_100_dropShadow" mode="normal"/>
  </filter>
 </defs>
 <g filter="url(#pWW74XEbEUxzxCLZ1jPpZiwcCBZrqENR)">
  <linearGradient id="_lgradient_45" x1="-.033" x2="1.033" y1="-.071" y2=".995" gradientTransform="matrix(244.648,0,0,228.338,5.676,11.947)" gradientUnits="userSpaceOnUse">
   <stop offset="0%" style="stop-color:rgb(88,132,244)"/>
   <stop offset="100%" style="stop-color:rgb(128,163,250)"/>
  </linearGradient>
  <path fill="url(#_lgradient_45)" d="M 165.685 11.947 C 239.74 11.947 250.324 22.504 250.324 96.491 L 250.324 155.742 C 250.324 229.728 239.74 240.285 165.685 240.285 L 90.315 240.285 C 16.26 240.285 5.676 229.728 5.676 155.742 L 5.676 96.491 C 5.676 22.504 16.26 11.947 90.315 11.947 L 165.685 11.947 Z"/>
 </g>
 <g>
  <g>
   <path fill="none" d="M 166.444 11.95 C 240.85 11.95 251.484 22.507 251.484 96.494 L 251.484 155.745 C 251.484 229.731 240.85 240.288 166.444 240.288 L 90.719 240.288 C 16.314 240.288 5.68 229.731 5.68 155.745 L 5.68 96.494 C 5.68 22.507 16.314 11.95 90.719 11.95 L 166.444 11.95 Z"/>
   <path fill="#F7F7F7" fill-opacity=".5" d="M 64.121 239.56 C 64.671 239.596 65.142 239.658 65.702 239.691 C 66.137 239.716 66.729 239.702 67.17 239.726 L 67.131 232.134 L 93.76 207.669 L 93.76 199.513 L 106.05 187.28 L 106.05 181.165 L 112.194 175.048 L 112.194 158.739 L 104.001 150.583 L 87.614 150.583 L 79.421 142.429 L 58.938 142.429 L 50.743 150.583 L 50.743 170.972 L 67.186 185.312 L 67.131 203.591 L 60.987 209.708 L 60.987 236.21 L 64.121 239.56 Z"/>
   <path fill="#F7F7F7" fill-opacity=".5" d="M 99.904 81.267 L 93.76 87.384 L 99.904 87.384 L 101.953 89.423 L 104.001 89.423 L 106.05 87.384 L 99.904 81.267 Z"/>
   <path fill="#F7F7F7" fill-opacity=".5" d="M 177.742 109.809 L 153.162 109.809 L 138.824 124.08 L 138.824 144.468 L 149.065 154.662 L 163.404 154.662 L 169.549 160.778 L 169.549 166.894 L 173.646 170.971 L 173.646 195.436 L 189.202 211.801 L 214.89 186.234 L 214.613 162.816 L 235.097 142.429 L 226.903 142.429 L 206.42 122.042 L 206.42 113.887 L 181.839 113.887 L 177.742 109.809 Z"/>
   <path fill="#F7F7F7" fill-opacity=".5" d="M 251.484 117.964 L 251.484 96.493 C 251.484 87.245 251.317 78.988 250.881 71.618 C 250.663 67.934 250.378 64.472 250.012 61.218 C 249.646 57.964 249.2 54.92 248.66 52.071 C 248.12 49.223 247.486 46.57 246.746 44.101 C 246.007 41.632 245.161 39.345 244.195 37.23 C 243.581 35.883 242.83 34.719 242.115 33.507 L 239.193 36.415 L 226.903 36.415 L 214.613 48.648 L 206.42 40.493 L 181.84 40.493 L 169.55 52.726 L 169.55 62.919 L 181.84 62.919 L 181.84 56.802 L 190.033 56.802 L 190.033 64.958 L 185.935 69.034 L 169.55 69.31 L 163.404 75.151 L 155.211 75.151 L 155.211 83.306 L 149.065 89.423 L 149.065 101.653 L 161.355 101.653 L 169.55 93.499 L 177.743 93.499 L 177.743 97.577 L 185.935 105.732 L 190.033 105.732 L 190.033 101.653 L 181.84 93.499 L 190.033 93.499 L 198.225 101.653 L 208.467 101.653 L 202.323 95.538 L 208.467 89.423 L 214.613 89.423 L 220.757 95.538 L 214.613 95.538 L 208.467 101.653 L 214.501 107.659 L 214.613 113.886 L 206.42 113.886 L 231.001 138.351 L 235.096 138.351 L 239.193 134.275 L 247.386 126.118 L 239.193 117.964 L 251.484 117.964 Z"/>
   <path fill="#F7F7F7" fill-opacity=".5" d="M 157.259 71.073 L 157.259 64.957 L 163.404 58.841 L 163.404 71.073 L 157.259 71.073 Z"/>
   <path fill="#F7F7F7" fill-opacity=".5" d="M 220.758 191.359 L 220.758 178.575 L 228.952 170.971 L 228.952 191.359 L 220.758 191.359 Z"/>
   <path fill="#F7F7F7" fill-opacity=".5" d="M 136.775 11.95 L 90.718 11.95 C 89.929 11.95 89.37 11.999 88.595 12.001 L 81.47 20.105 L 93.76 32.337 L 93.76 45.12 L 108.099 60.88 L 116.292 60.88 L 116.292 52.726 L 128.582 40.493 L 128.582 32.337 L 136.775 24.183 L 136.775 11.95 Z"/>
   <path fill="#F7F7F7" fill-opacity=".5" d="M 126.533 56.802 L 132.679 56.802 L 138.824 62.918 L 126.533 62.918 L 126.533 56.802 Z"/>
   <path fill="#F7F7F7" fill-opacity=".5" d="M 71.228 124.08 L 65.083 124.08 L 58.937 130.197 L 71.228 130.197 L 71.228 124.08 Z"/>
   <path fill="#F7F7F7" fill-opacity=".5" d="M 16.585 30.96 C 16.478 31.112 16.34 31.228 16.235 31.382 C 15.018 33.17 13.934 35.114 12.968 37.23 C 12.003 39.345 11.157 41.632 10.417 44.101 C 9.677 46.57 9.044 49.223 8.504 52.071 C 7.964 54.92 7.518 57.964 7.152 61.218 C 6.786 64.472 6.5 67.934 6.282 71.618 C 5.846 78.988 5.68 87.245 5.68 96.493 L 5.68 117.964 L 13.873 126.118 L 26.163 126.118 L 46.648 146.507 L 46.648 122.042 L 58.938 109.81 L 67.131 109.81 L 79.421 97.577 L 91.711 97.577 L 85.567 91.46 L 97.857 77.191 L 85.567 64.958 L 67.131 64.958 L 67.131 81.267 L 58.938 81.267 L 50.743 73.112 L 50.743 64.958 L 63.034 52.726 L 73.277 52.726 L 73.277 44.569 L 60.987 32.337 L 40.502 32.337 L 40.502 44.569 L 30.26 44.569 L 16.585 30.96 Z"/>
   <path fill="#F7F7F7" fill-opacity=".5" d="M 67.131 12.515 C 66.702 12.538 66.126 12.523 65.702 12.548 C 61.997 12.765 58.513 13.048 55.241 13.411 C 51.969 13.775 48.907 14.219 46.042 14.755 C 43.483 15.234 41.136 15.818 38.883 16.454 L 46.648 24.183 L 67.131 24.183 L 67.131 12.515 Z"/>
  </g>
 </g>
 <g opacity=".4">
  <linearGradient id="_lgradient_46" x1=".517" x2=".517" y1="0" y2="1">
   <stop offset="0%" style="stop-color:rgb(255,255,255)"/>
   <stop offset="12.5%" stop-opacity=".098" style="stop-color:rgb(255,255,255)"/>
   <stop offset="92.5%" stop-opacity=".098" style="stop-color:rgb(0,0,0)"/>
   <stop offset="100%" stop-opacity=".498" style="stop-color:rgb(0,0,0)"/>
  </linearGradient>
  <path fill="none" stroke="url(#_lgradient_46)" stroke-linecap="round" stroke-linejoin="round" stroke-width="4.077" d="M 165.685 11.947 C 239.74 11.947 250.324 22.504 250.324 96.491 L 250.324 155.742 C 250.324 229.728 239.74 240.285 165.685 240.285 L 90.315 240.285 C 16.26 240.285 5.676 229.728 5.676 155.742 L 5.676 96.491 C 5.676 22.504 16.26 11.947 90.315 11.947 L 165.685 11.947 Z" vector-effect="non-scaling-stroke"/>
 </g>
 <g filter="url(#bdswC98HVhlrZHloCHoHLoj8pXCZWQbm)">
  <linearGradient id="_lgradient_47" x1=".631" x2=".636" y1=".775" y2=".141" gradientTransform="matrix(163.099,0,0,89.541,45.892,100.995)" gradientUnits="userSpaceOnUse">
   <stop offset="2.609%" stop-opacity=".996" style="stop-color:rgb(209,227,255)"/>
   <stop offset="98.261%" style="stop-color:rgb(236,243,253)"/>
  </linearGradient>
  <path fill="url(#_lgradient_47)" d="M 45.892 100.995 L 45.892 154.406 C 45.892 161.568 47.244 166.721 49.882 169.862 C 52.395 172.877 57.292 174.423 64.58 174.423 L 81.887 174.423 L 104.711 190.536 L 127.537 174.423 L 190.304 174.423 C 197.592 174.423 202.488 172.877 205.001 169.862 C 207.64 166.721 208.991 161.568 208.991 154.406 L 208.991 100.995 L 45.892 100.995 Z"/>
  <linearGradient id="_lgradient_48" x1=".361" x2=".361" y1=".01" y2=".967" gradientTransform="matrix(163.099,0,0,122.164,45.892,68.371)" gradientUnits="userSpaceOnUse">
   <stop offset=".435%" style="stop-color:rgb(255,255,255)"/>
   <stop offset="97.826%" style="stop-color:rgb(246,249,253)"/>
   <stop offset="100%" style="stop-color:rgb(216,228,247)"/>
  </linearGradient>
  <path fill="url(#_lgradient_48)" d="M 64.579 68.375 C 57.293 68.284 52.396 70.003 49.883 73.019 C 47.245 76.16 45.892 81.313 45.892 88.475 L 45.892 151.893 L 81.887 174.423 L 104.712 190.535 L 127.537 174.423 L 127.537 174.423 L 208.991 112.573 L 208.991 88.475 C 208.991 81.313 207.639 76.16 205.001 73.019 C 202.488 70.003 197.592 68.375 190.304 68.375 L 178.142 68.375 L 97.669 68.375 L 64.579 68.375 Z"/>
  <g opacity=".1">
   <linearGradient id="_lgradient_49" x1=".612" x2=".714" y1=".365" y2=".498" gradientTransform="matrix(81.454,0,0,61.85,127.537,112.573)" gradientUnits="userSpaceOnUse">
    <stop offset="0%" stop-opacity=".996" style="stop-color:rgb(64,130,230)"/>
    <stop offset="100%" stop-opacity=".275" style="stop-color:rgb(234,178,97)"/>
   </linearGradient>
   <path fill="url(#_lgradient_49)" d="M 208.991 112.573 L 127.537 174.423 L 190.304 174.423 C 197.592 174.423 202.488 172.878 205.001 169.862 C 207.639 166.721 208.991 161.568 208.991 154.406 L 208.991 112.573 Z"/>
  </g>
  <g opacity=".1">
   <linearGradient id="_lgradient_50" x1=".368" x2=".178" y1=".105" y2=".353" gradientTransform="matrix(35.994,0,0,22.704,45.892,151.893)" gradientUnits="userSpaceOnUse">
    <stop offset="0%" stop-opacity=".996" style="stop-color:rgb(64,130,230)"/>
    <stop offset="100%" stop-opacity=".275" style="stop-color:rgb(234,178,97)"/>
   </linearGradient>
   <path fill="url(#_lgradient_50)" d="M 45.892 151.893 L 45.892 154.406 C 45.892 161.568 47.245 166.721 49.883 169.862 C 52.396 172.878 57.342 175.276 64.579 174.423 L 81.887 174.423 L 45.892 151.893 Z"/>
  </g>
  <path fill="#FFFFFF" d="M 64.58 68.375 C 57.293 68.284 52.395 70.004 49.882 73.02 C 47.244 76.161 45.892 81.314 45.892 88.475 L 45.892 90.514 C 45.892 83.352 47.244 78.2 49.882 75.058 C 52.395 72.043 57.293 70.322 64.58 70.414 L 97.669 70.414 L 178.141 70.414 L 190.304 70.414 C 197.592 70.414 202.489 72.043 205.001 75.058 C 207.64 78.2 208.991 83.352 208.991 90.514 L 208.991 88.475 C 208.991 81.314 207.64 76.161 205.001 73.02 C 202.489 70.004 197.592 68.375 190.304 68.375 L 178.141 68.375 L 97.669 68.375 L 64.58 68.375 Z"/>
 </g>
 <defs>
  <filter id="bdswC98HVhlrZHloCHoHLoj8pXCZWQbm" width="223.099" height="182.164" x="15.89" y="42.37" filterUnits="userSpaceOnUse">
   <feGaussianBlur xmlns="http://www.w3.org/2000/svg" in="SourceGraphic" stdDeviation="4.294"/>
   <feOffset xmlns="http://www.w3.org/2000/svg" dx="0" dy="4" result="pf_100_offsetBlur"/>
   <feFlood xmlns="http://www.w3.org/2000/svg" flood-opacity=".4"/>
   <feComposite xmlns="http://www.w3.org/2000/svg" in2="pf_100_offsetBlur" operator="in" result="pf_100_dropShadow"/>
   <feBlend xmlns="http://www.w3.org/2000/svg" in="SourceGraphic" in2="pf_100_dropShadow" mode="normal"/>
  </filter>
 </defs>
</svg>
